X:1
T:Swinging on a Gate
L:1/8
M:C|
I:linebreak $
K:G
V:1 treble
V:1
"G" gedB G2 AB |"Am" cABG AGEG |"G" DGBd g2 g2 |"D" fgag fdef |$
 "G"gedB G2 AB |"Am" cABG AGEG | cABG AGEG |"D"  DGGF "G"G2 Bd ::$
"G" gfga bagf |"Em" gfed B2 AG |"Am" EAAB cBAG | EAAB "D"cdef |$
"G" gfga bagf | "Em" gfed edBd |"Am" cABG AGEG |"D" DGGF "G"G4 :|
